packages/symbols/svgs/solid/share-from-square-solid.svg

<svg width="16" height="16" viewBox="0 0 16 16" xmlns="http://www.w3.org/2000/svg"><g clip-path="url(#a)"><path fill-rule="evenodd" clip-rule="evenodd" d="M4 10c0-4.5 2.8-7 6-7V0l6 5-6 5V7c-3.6 0-4.9 1.3-6 3Zm-3 6h14c.6 0 1-.4 1-1V9h-2v5H2V4h2V2H1c-.6 0-1 .4-1 1v12c0 .6.4 1 1 1Z"/></g><defs><clipPath id="a"><path fill="#fff" d="M0 0h16v16H0z"/></clipPath></defs></svg>

<svg width="16" height="16" viewBox="0 0 16 16" fill="none" xmlns="http://www.w3.org/2000/svg">
<g clip-path="url(#clip0_608_2985)">
<path fill-rule="evenodd" clip-rule="evenodd" d="M4 10C4 5.5 6.8 3 10 3L10 1.74846e-06L16 5L10 10L10 7C6.4 7 5.1 8.3 4 10ZM1 16L15 16C15.6 16 16 15.6 16 15L16 9L14 9L14 14L2 14L2 4L4 4L4 2L1 2C0.4 2 -4.19629e-07 2.4 -5.24537e-07 3L0 15C0 15.6 0.4 16 1 16Z" fill="black"/>
</g>
<defs>
<clipPath id="clip0_608_2985">
<rect width="16" height="16" fill="white"/>
</clipPath>
</defs>
</svg>
